X:81
T:Jenny's Chickens
R:reel
M:4/4
L:1/8
K:Bm
|:f2fe fece|f2fd eAce|f2fe fece|f2af eAce:|
|:fBBA B2de|fBB2 eAce|fBBA Bcde|1 f2af eAce:|2 f2af edcA|
|:B2bB aBgB|B2fB edcA|B2bB aBgB|1 f2af edcA:|2 f2af eAce||
